X: 122	% 30
T: Arkansas Traveler
S: Viola Ruth "Pioneer Western Folk Tunes" 1948 p.12 #2
R: reel
Z: 2019 John Chambers <jc:trillian.mit.edu>
M: 2/4
L: 1/16
K: D
V: 1 name="30"
H[D4D4] |:\
DEFD B,2B,2 | A,A,A,A, D2D2 |\
EEEE F2F2 | EFED B,2A,2 |\
DEFD B,2B,2 |
A,A,A,A, D2D2 |\
dcdA BdAG | FDEC D2 :: (fg) |\
agfa gfeg | fedf ecA2 |
dcdf e2(3(ABc) | dcdf e2(fg) |\
agfa gfeg | fedf ecA2 |\
dcdA BdAG | FDEC D2 :|
